X: 1693
T: Anthony Frawley's
R: jig
M: 6/8
K: Gmajor
|:BA|GED GBA|GED G2A|GED GAB|dBA B2A|
GED GAB|def g2a|bag e/f/ge|dBG A:|
|:Bc|~d3 edB|def gfe|~d3 edB|dBG ABc|
~d3 edB|def g2a|bag e/f/ge|dBG A:|

